assets/images/security/fully-secured-ssl-checkout.svg

<svg width="103" height="27" viewBox="0 0 103 27" fill="none" xmlns="http://www.w3.org/2000/svg">
<path d="M11.1942 16.2959C11.6115 16.2959 11.9497 15.954 11.9497 15.5323C11.9497 15.1106 11.6115 14.7687 11.1942 14.7687C10.7769 14.7687 10.4387 15.1106 10.4387 15.5323C10.4387 15.954 10.7769 16.2959 11.1942 16.2959Z" fill="#222222"/>
<path d="M14.9718 10.1871H14.2163V8.74385C14.2163 7.93378 13.8979 7.15689 13.3311 6.58408C12.7644 6.01127 11.9957 5.68947 11.1942 5.68947C10.3927 5.68947 9.62401 6.01127 9.05726 6.58408C8.49051 7.15689 8.17211 7.93378 8.17211 8.74385V10.1871H7.41659C6.81546 10.1871 6.23895 10.4284 5.81389 10.858C5.38882 11.2876 5.15002 11.8703 5.15002 12.4778V18.5866C5.15002 19.1942 5.38882 19.7768 5.81389 20.2064C6.23895 20.636 6.81546 20.8774 7.41659 20.8774H14.9718C15.5729 20.8774 16.1494 20.636 16.5745 20.2064C16.9996 19.7768 17.2384 19.1942 17.2384 18.5866V12.4778C17.2384 11.8703 16.9996 11.2876 16.5745 10.858C16.1494 10.4284 15.5729 10.1871 14.9718 10.1871ZM9.68315 8.74385C9.67299 8.32792 9.82628 7.92486 10.1095 7.62289C10.3927 7.32093 10.7827 7.14466 11.1942 7.13267C11.6057 7.14466 11.9957 7.32093 12.2789 7.62289C12.5621 7.92486 12.7154 8.32792 12.7052 8.74385V10.1871H9.68315V8.74385ZM11.1942 17.823C10.7459 17.823 10.3077 17.6887 9.93496 17.4369C9.56222 17.1852 9.27171 16.8275 9.10016 16.4089C8.92861 15.9903 8.88373 15.5297 8.97118 15.0853C9.05864 14.6409 9.27451 14.2328 9.59149 13.9124C9.90848 13.592 10.3123 13.3738 10.752 13.2854C11.1917 13.1971 11.6474 13.2424 12.0616 13.4158C12.4757 13.5892 12.8297 13.8828 13.0788 14.2595C13.3278 14.6362 13.4608 15.0791 13.4608 15.5322C13.4608 16.1398 13.222 16.7224 12.7969 17.1521C12.3718 17.5817 11.7953 17.823 11.1942 17.823Z" fill="#222222"/>
<path d="M24.5999 5.6875C24.5999 5.54943 24.7118 5.4375 24.8499 5.4375C24.9879 5.4375 25.0999 5.54943 25.0999 5.6875V20.8775C25.0999 21.0156 24.9879 21.1275 24.8499 21.1275C24.7118 21.1275 24.5999 21.0156 24.5999 20.8775V5.6875Z" fill="#222222"/>
<path d="M33.8277 9.67027H33.2093V6.01677H35.4818V6.59906H33.8277V7.62452H35.3117V8.1965H33.8277V9.67027Z" fill="#222222"/>
<path d="M38.6185 9.39201C38.3643 9.62905 38.0379 9.74757 37.6394 9.74757C37.2409 9.74757 36.9146 9.62905 36.6603 9.39201C36.4061 9.15497 36.279 8.82346 36.279 8.39747V6.01677H36.8922V8.3614C36.8922 8.61562 36.9575 8.81315 37.0881 8.954C37.222 9.09141 37.4058 9.16012 37.6394 9.16012C37.8765 9.16012 38.0603 9.09141 38.1908 8.954C38.3213 8.81659 38.3866 8.61905 38.3866 8.3614V6.01677H39.005V8.39747C39.005 8.82346 38.8762 9.15497 38.6185 9.39201Z" fill="#222222"/>
<path d="M42.3886 9.67027H40.0955V6.01677H40.7138V9.08283H42.3886V9.67027Z" fill="#222222"/>
<path d="M45.5045 9.67027H43.2114V6.01677H43.8298V9.08283H45.5045V9.67027Z" fill="#222222"/>
<path d="M46.8666 8.12436L45.5887 6.01677H46.3204L47.1964 7.54722L48.0776 6.01677H48.7733L47.485 8.12436V9.67027H46.8666V8.12436Z" fill="#222222"/>
<path d="M53.456 6.87217L52.8995 7.04737C52.8755 6.90652 52.805 6.7777 52.6882 6.6609C52.5714 6.54409 52.4031 6.48569 52.1832 6.48569C52.0012 6.48569 51.85 6.53722 51.7298 6.64028C51.613 6.74334 51.5546 6.86702 51.5546 7.0113C51.5546 7.26208 51.6971 7.41839 51.9823 7.48023L52.5079 7.58844C52.8239 7.65028 53.0679 7.77567 53.2396 7.96462C53.4114 8.15356 53.4973 8.37858 53.4973 8.63966C53.4973 8.94198 53.3805 9.20306 53.1469 9.42293C52.9167 9.63936 52.6024 9.74757 52.2039 9.74757C51.7744 9.74757 51.4395 9.63592 51.199 9.41262C50.9585 9.18589 50.8228 8.92308 50.7919 8.62421L51.3691 8.45931C51.3897 8.66543 51.4721 8.83892 51.6164 8.97977C51.7607 9.12062 51.9565 9.19104 52.2039 9.19104C52.4168 9.19104 52.58 9.14466 52.6934 9.05191C52.8102 8.95572 52.8686 8.83376 52.8686 8.68604C52.8686 8.5658 52.8257 8.46274 52.7398 8.37686C52.6539 8.28754 52.5337 8.2257 52.3791 8.19135L51.8638 8.08314C51.5786 8.02473 51.3519 7.90622 51.1836 7.72758C51.0187 7.54894 50.9362 7.32564 50.9362 7.05768C50.9362 6.75193 51.0582 6.48913 51.3021 6.26926C51.546 6.0494 51.838 5.93947 52.1781 5.93947C52.5663 5.93947 52.8634 6.03394 53.0696 6.22289C53.2757 6.4084 53.4045 6.62482 53.456 6.87217Z" fill="#222222"/>
<path d="M56.6542 9.67027H54.3972V6.01677H56.6542V6.59391H55.0155V7.56268H56.4996V8.12436H55.0155V9.09313H56.6542V9.67027Z" fill="#222222"/>
<path d="M59.2622 9.74757C58.7503 9.74757 58.314 9.57408 57.9533 9.22711C57.596 8.88014 57.4174 8.4198 57.4174 7.8461C57.4174 7.27583 57.5994 6.81549 57.9636 6.46508C58.3277 6.11467 58.7589 5.93947 59.257 5.93947C59.6967 5.93947 60.0574 6.05112 60.3391 6.27442C60.6243 6.49772 60.8115 6.78113 60.9008 7.12467L60.3185 7.32049C60.2601 7.08345 60.1416 6.89107 59.963 6.74335C59.7843 6.59562 59.549 6.52176 59.257 6.52176C58.9306 6.52176 58.6472 6.63857 58.4068 6.87217C58.1697 7.10234 58.0512 7.42698 58.0512 7.8461C58.0512 8.2549 58.1697 8.57611 58.4068 8.80972C58.6438 9.03988 58.9289 9.15497 59.2622 9.15497C59.5473 9.15497 59.7826 9.07767 59.9681 8.92308C60.1536 8.76849 60.2807 8.57783 60.3494 8.35109L60.9163 8.5366C60.827 8.8767 60.638 9.16356 60.3494 9.39716C60.0643 9.63077 59.7019 9.74757 59.2622 9.74757Z" fill="#222222"/>
<path d="M64.0848 9.39201C63.8306 9.62905 63.5042 9.74757 63.1057 9.74757C62.7072 9.74757 62.3809 9.62905 62.1266 9.39201C61.8724 9.15497 61.7453 8.82346 61.7453 8.39747V6.01677H62.3585V8.3614C62.3585 8.61562 62.4238 8.81315 62.5543 8.954C62.6883 9.09141 62.8721 9.16012 63.1057 9.16012C63.3428 9.16012 63.5266 9.09141 63.6571 8.954C63.7876 8.81659 63.8529 8.61905 63.8529 8.3614V6.01677H64.4713V8.39747C64.4713 8.82346 64.3425 9.15497 64.0848 9.39201Z" fill="#222222"/>
<path d="M67.4065 9.67027L66.6387 8.22742H66.1853V9.67027H65.5618V6.01677H66.9634C67.3069 6.01677 67.5835 6.12326 67.793 6.33625C68.0026 6.54581 68.1074 6.80862 68.1074 7.12467C68.1074 7.38576 68.0335 7.60906 67.8858 7.79457C67.7381 7.98008 67.5371 8.10375 67.2829 8.16558L68.1074 9.67027H67.4065ZM66.1853 7.6812H66.85C67.039 7.6812 67.1901 7.63139 67.3035 7.53176C67.4203 7.4287 67.4787 7.293 67.4787 7.12467C67.4787 6.9529 67.4203 6.81721 67.3035 6.71758C67.1901 6.61452 67.039 6.56299 66.85 6.56299H66.1853V7.6812Z" fill="#222222"/>
<path d="M71.282 9.67027H69.025V6.01677H71.282V6.59391H69.6433V7.56268H71.1274V8.12436H69.6433V9.09313H71.282V9.67027Z" fill="#222222"/>
<path d="M72.9002 9.10344H73.5495C73.8862 9.10344 74.1627 8.99694 74.3791 8.78395C74.599 8.56752 74.7089 8.25662 74.7089 7.85125C74.7089 7.44244 74.6007 7.12982 74.3843 6.9134C74.1679 6.69353 73.8913 6.5836 73.5546 6.5836H72.9002V9.10344ZM73.5701 9.67027H72.2818V6.01677H73.5753C74.0906 6.01677 74.5148 6.17995 74.8481 6.5063C75.1847 6.83266 75.3531 7.28098 75.3531 7.85125C75.3531 8.41808 75.1847 8.86296 74.8481 9.18589C74.5114 9.50881 74.0854 9.67027 73.5701 9.67027Z" fill="#222222"/>
<path d="M37.5419 14.5698L36.3429 14.9076C36.3148 14.7218 36.2219 14.5501 36.0643 14.3925C35.9067 14.2349 35.6675 14.1561 35.3466 14.1561C35.1045 14.1561 34.9075 14.2208 34.7555 14.3503C34.6036 14.4741 34.5276 14.6233 34.5276 14.7978C34.5276 15.1074 34.7246 15.2988 35.1186 15.372L35.9208 15.524C36.4724 15.6253 36.8974 15.842 37.1958 16.1741C37.4997 16.5006 37.6517 16.8834 37.6517 17.3224C37.6517 17.8234 37.4519 18.2653 37.0522 18.6481C36.6525 19.0252 36.115 19.2138 35.4395 19.2138C34.6852 19.2138 34.0998 19.0196 33.6832 18.6312C33.2723 18.2372 33.0415 17.7925 32.9908 17.2971L34.2152 17.0016C34.2433 17.2999 34.3587 17.5476 34.5613 17.7446C34.7696 17.936 35.068 18.0317 35.4564 18.0317C35.7153 18.0317 35.9208 17.9754 36.0728 17.8628C36.2247 17.7446 36.3007 17.5926 36.3007 17.4069C36.3007 17.2549 36.2444 17.1282 36.1319 17.0269C36.0193 16.92 35.8617 16.8468 35.659 16.8074L34.84 16.6554C34.3334 16.5597 33.9337 16.3542 33.641 16.039C33.3539 15.7238 33.2104 15.3438 33.2104 14.8991C33.2104 14.3475 33.4215 13.8887 33.8436 13.5228C34.2658 13.1569 34.7696 12.974 35.355 12.974C35.7097 12.974 36.0249 13.0246 36.3007 13.126C36.5822 13.2217 36.8045 13.3511 36.9678 13.5144C37.131 13.6776 37.2577 13.8465 37.3477 14.021C37.4434 14.1955 37.5082 14.3784 37.5419 14.5698Z" fill="#222222"/>
<path d="M42.6873 14.5698L41.4883 14.9076C41.4601 14.7218 41.3673 14.5501 41.2096 14.3925C41.052 14.2349 40.8128 14.1561 40.4919 14.1561C40.2499 14.1561 40.0529 14.2208 39.9009 14.3503C39.7489 14.4741 39.6729 14.6233 39.6729 14.7978C39.6729 15.1074 39.8699 15.2988 40.264 15.372L41.0661 15.524C41.6178 15.6253 42.0427 15.842 42.3411 16.1741C42.6451 16.5006 42.797 16.8834 42.797 17.3224C42.797 17.8234 42.5972 18.2653 42.1975 18.6481C41.7979 19.0252 41.2603 19.2138 40.5848 19.2138C39.8305 19.2138 39.2451 19.0196 38.8285 18.6312C38.4176 18.2372 38.1868 17.7925 38.1362 17.2971L39.3605 17.0016C39.3886 17.2999 39.504 17.5476 39.7067 17.7446C39.915 17.936 40.2133 18.0317 40.6017 18.0317C40.8606 18.0317 41.0661 17.9754 41.2181 17.8628C41.3701 17.7446 41.4461 17.5926 41.4461 17.4069C41.4461 17.2549 41.3898 17.1282 41.2772 17.0269C41.1646 16.92 41.007 16.8468 40.8043 16.8074L39.9853 16.6554C39.4787 16.5597 39.079 16.3542 38.7863 16.039C38.4992 15.7238 38.3557 15.3438 38.3557 14.8991C38.3557 14.3475 38.5668 13.8887 38.989 13.5228C39.4111 13.1569 39.915 12.974 40.5004 12.974C40.855 12.974 41.1702 13.0246 41.4461 13.126C41.7275 13.2217 41.9499 13.3511 42.1131 13.5144C42.2764 13.6776 42.403 13.8465 42.4931 14.021C42.5888 14.1955 42.6535 14.3784 42.6873 14.5698Z" fill="#222222"/>
<path d="M47.63 19.0872H43.7121V13.1006H45.0462V17.8122H47.63V19.0872Z" fill="#222222"/>
<path d="M53.3336 19.2138C52.4555 19.2138 51.7181 18.9267 51.1214 18.3526C50.5247 17.7728 50.2264 17.0241 50.2264 16.1066C50.2264 15.1947 50.5275 14.446 51.1298 13.8606C51.7322 13.2695 52.4611 12.974 53.3167 12.974C53.7446 12.974 54.1302 13.0387 54.4735 13.1682C54.8225 13.292 55.104 13.4581 55.3179 13.6664C55.5318 13.8746 55.7035 14.0885 55.833 14.3081C55.9624 14.5276 56.0525 14.7556 56.1031 14.992L54.845 15.3889C54.8169 15.2706 54.7719 15.1553 54.7099 15.0427C54.648 14.9245 54.5608 14.8062 54.4482 14.688C54.3356 14.5642 54.1808 14.4657 53.9838 14.3925C53.7868 14.3137 53.5644 14.2743 53.3167 14.2743C52.8664 14.2743 52.4696 14.4347 52.1262 14.7556C51.7828 15.0708 51.6111 15.5211 51.6111 16.1066C51.6111 16.647 51.78 17.0776 52.1178 17.3984C52.4555 17.7193 52.8608 17.8797 53.3336 17.8797C53.7952 17.8797 54.1527 17.7643 54.406 17.5335C54.6593 17.3027 54.8253 17.0438 54.9042 16.7567L56.1791 17.1198C56.1228 17.3506 56.03 17.5786 55.9005 17.8037C55.7767 18.0289 55.605 18.2512 55.3854 18.4708C55.1715 18.6903 54.8845 18.8704 54.5242 19.0112C54.1696 19.1463 53.7727 19.2138 53.3336 19.2138Z" fill="#222222"/>
<path d="M62.1611 19.0872H60.8186V16.7061H58.429V19.0872H57.0949V13.1006H58.429V15.448H60.8186V13.1006H62.1611V19.0872Z" fill="#222222"/>
<path d="M67.252 19.0872H63.4524V13.1006H67.2436V14.3587H64.7865V15.4986H67.0156V16.6723H64.7865V17.8206H67.252V19.0872Z" fill="#222222"/>
<path d="M71.1279 19.2138C70.2498 19.2138 69.5124 18.9267 68.9157 18.3526C68.319 17.7728 68.0207 17.0241 68.0207 16.1066C68.0207 15.1947 68.3218 14.446 68.9241 13.8606C69.5264 13.2695 70.2554 12.974 71.111 12.974C71.5388 12.974 71.9244 13.0387 72.2678 13.1682C72.6168 13.292 72.8983 13.4581 73.1122 13.6664C73.3261 13.8746 73.4978 14.0885 73.6272 14.3081C73.7567 14.5276 73.8468 14.7556 73.8974 14.992L72.6393 15.3889C72.6112 15.2706 72.5662 15.1553 72.5042 15.0427C72.4423 14.9245 72.3551 14.8062 72.2425 14.688C72.1299 14.5642 71.9751 14.4657 71.7781 14.3925C71.5811 14.3137 71.3587 14.2743 71.111 14.2743C70.6607 14.2743 70.2639 14.4347 69.9205 14.7556C69.5771 15.0708 69.4054 15.5211 69.4054 16.1066C69.4054 16.647 69.5743 17.0776 69.912 17.3984C70.2498 17.7193 70.6551 17.8797 71.1279 17.8797C71.5895 17.8797 71.947 17.7643 72.2003 17.5335C72.4536 17.3027 72.6196 17.0438 72.6984 16.7567L73.9734 17.1198C73.9171 17.3506 73.8243 17.5786 73.6948 17.8037C73.5709 18.0289 73.3993 18.2512 73.1797 18.4708C72.9658 18.6903 72.6787 18.8704 72.3185 19.0112C71.9638 19.1463 71.567 19.2138 71.1279 19.2138Z" fill="#222222"/>
<path d="M78.5116 19.0872L76.8988 16.7314L76.2233 17.4829V19.0872H74.8892V13.1006H76.2233V15.6168L78.4102 13.1006H80.1665L77.8361 15.6928L80.1749 19.0872H78.5116Z" fill="#222222"/>
<path d="M82.0335 14.7471C81.6901 15.0567 81.5184 15.5043 81.5184 16.0897C81.5184 16.6751 81.6901 17.1226 82.0335 17.4322C82.3825 17.7418 82.7878 17.8966 83.2494 17.8966C83.7109 17.8966 84.1134 17.7418 84.4568 17.4322C84.8002 17.1226 84.9718 16.6751 84.9718 16.0897C84.9718 15.5043 84.8002 15.0567 84.4568 14.7471C84.1134 14.4319 83.7109 14.2743 83.2494 14.2743C82.7878 14.2743 82.3825 14.4319 82.0335 14.7471ZM80.1337 16.0981C80.1337 15.1693 80.4348 14.4178 81.0371 13.8437C81.6451 13.2639 82.3825 12.974 83.2494 12.974C84.1162 12.974 84.8508 13.2639 85.4531 13.8437C86.0554 14.4235 86.3566 15.175 86.3566 16.0981C86.3566 17.0213 86.0554 17.7728 85.4531 18.3526C84.8508 18.9267 84.1162 19.2138 83.2494 19.2138C82.3825 19.2138 81.6451 18.9267 81.0371 18.3526C80.4348 17.7728 80.1337 17.0213 80.1337 16.0981Z" fill="#222222"/>
<path d="M91.3265 18.6228C90.8818 19.0224 90.316 19.2223 89.6293 19.2223C88.9425 19.2223 88.374 19.0224 87.9237 18.6228C87.479 18.2175 87.2566 17.6518 87.2566 16.9256V13.1006H88.5907V16.8158C88.5907 17.1705 88.6808 17.4407 88.8609 17.6264C89.0467 17.8122 89.3028 17.9051 89.6293 17.9051C89.9558 17.9051 90.2091 17.8122 90.3892 17.6264C90.575 17.4407 90.6679 17.1705 90.6679 16.8158V13.1006H92.002V16.9256C92.002 17.6518 91.7768 18.2175 91.3265 18.6228Z" fill="#222222"/>
<path d="M97.8279 14.3756H95.9788V19.0872H94.6447V14.3756H92.804V13.1006H97.8279V14.3756Z" fill="#222222"/>
<rect x="0.5" y="0.784668" width="101.978" height="24.9961" rx="2.5" stroke="#222222"/>
</svg>

<svg width="103" height="27" fill="none" xmlns="http://www.w3.org/2000/svg"><path d="M11.194 16.296a.76.76 0 0 0 .756-.764.76.76 0 0 0-.756-.763.76.76 0 0 0-.755.763.76.76 0 0 0 .755.764z" fill="#222"/><path d="M14.972 10.187h-.756V8.744a3.07 3.07 0 0 0-.885-2.16 3.006 3.006 0 0 0-2.137-.895c-.801 0-1.57.322-2.137.895a3.071 3.071 0 0 0-.885 2.16v1.443h-.755c-.602 0-1.178.241-1.603.671a2.303 2.303 0 0 0-.664 1.62v6.109c0 .607.239 1.19.664 1.62.425.429 1.001.67 1.603.67h7.555c.6 0 1.177-.241 1.603-.67.425-.43.663-1.013.663-1.62v-6.11c0-.607-.238-1.19-.663-1.619a2.255 2.255 0 0 0-1.603-.67zM9.683 8.744c-.01-.416.143-.82.427-1.121a1.549 1.549 0 0 1 1.084-.49c.412.012.802.188 1.085.49.283.302.436.705.426 1.12v1.444H9.683V8.744zm1.511 9.079c-.448 0-.886-.134-1.259-.386a2.285 2.285 0 0 1-.835-1.028 2.314 2.314 0 0 1 .491-2.497 2.245 2.245 0 0 1 2.47-.497c.415.174.769.468 1.018.844a2.309 2.309 0 0 1-.282 2.893c-.425.43-1.002.671-1.603.671zM24.6 5.687a.25.25 0 1 1 .5 0v15.19a.25.25 0 0 1-.5 0V5.688zm9.228 3.983h-.619V6.017h2.273v.582h-1.654v1.026h1.484v.572h-1.484V9.67zm4.79-.278c-.254.237-.58.356-.979.356-.398 0-.724-.119-.979-.356-.254-.237-.381-.569-.381-.995v-2.38h.613V8.36c0 .255.066.452.196.593.134.137.318.206.551.206.237 0 .421-.069.552-.206.13-.137.196-.335.196-.593V6.017h.618v2.38c0 .426-.129.758-.387.995zm3.77.278h-2.292V6.017h.618v3.066h1.675v.587zm3.117 0H43.21V6.017h.619v3.066h1.675v.587zm1.362-1.546l-1.278-2.107h.731l.876 1.53.882-1.53h.695l-1.288 2.107V9.67h-.618V8.124zm6.589-1.252l-.556.175a.712.712 0 0 0-.212-.386c-.117-.117-.285-.175-.505-.175a.672.672 0 0 0-.453.154.478.478 0 0 0-.175.371c0 .251.142.407.427.47l.526.107c.316.062.56.188.732.377a.97.97 0 0 1 .257.675c0 .302-.117.563-.35.783-.23.216-.545.325-.943.325-.43 0-.764-.112-1.005-.335a1.237 1.237 0 0 1-.407-.789l.577-.165c.02.206.103.38.247.52.145.142.34.212.588.212.213 0 .376-.046.49-.14a.454.454 0 0 0 .175-.365.422.422 0 0 0-.13-.31.695.695 0 0 0-.36-.185l-.515-.108a1.25 1.25 0 0 1-.68-.355.95.95 0 0 1-.248-.67c0-.306.122-.569.366-.789.244-.22.536-.33.876-.33.388 0 .685.095.892.284.206.185.334.402.386.65zm3.198 2.798h-2.257V6.017h2.257v.577h-1.639v.969H56.5v.561h-1.484v.97h1.638v.576zm2.608.078a1.82 1.82 0 0 1-1.309-.52c-.357-.348-.536-.808-.536-1.382 0-.57.182-1.03.547-1.38.364-.351.795-.527 1.293-.527.44 0 .8.112 1.082.335.285.224.473.507.562.85l-.583.196a1.054 1.054 0 0 0-.355-.577c-.179-.147-.414-.221-.706-.221-.326 0-.61.117-.85.35-.237.23-.356.555-.356.974 0 .409.119.73.356.964.237.23.522.345.855.345.285 0 .52-.077.706-.232.186-.155.313-.345.381-.572l.567.186c-.089.34-.278.627-.567.86-.285.234-.647.35-1.087.35zm4.823-.356c-.254.237-.58.356-.98.356-.398 0-.724-.119-.978-.356-.255-.237-.382-.569-.382-.995v-2.38h.614V8.36c0 .255.065.452.195.593.134.137.318.206.552.206.237 0 .42-.069.551-.206.13-.137.196-.335.196-.593V6.017h.618v2.38c0 .426-.129.758-.386.995zm3.322.278l-.768-1.443h-.454V9.67h-.623V6.017h1.401c.344 0 .62.106.83.32.21.209.314.472.314.788 0 .26-.073.484-.221.67-.148.185-.349.309-.603.37l.824 1.505h-.7zm-1.222-1.989h.665c.189 0 .34-.05.454-.15a.517.517 0 0 0 .175-.406.507.507 0 0 0-.175-.407.648.648 0 0 0-.454-.155h-.665v1.118zm5.097 1.99h-2.257V6.016h2.257v.577h-1.639v.969h1.484v.561h-1.484v.97h1.639v.576zm1.618-.568h.65c.336 0 .613-.106.83-.319.219-.216.329-.527.329-.933 0-.409-.108-.721-.325-.938a1.114 1.114 0 0 0-.83-.33H72.9v2.52zm.67.567h-1.288V6.017h1.293c.516 0 .94.163 1.273.49.337.326.505.774.505 1.344 0 .567-.168 1.012-.505 1.335-.337.323-.763.484-1.278.484zm-36.028 4.9l-1.2.338a.92.92 0 0 0-.278-.515c-.157-.158-.397-.237-.717-.237-.242 0-.44.065-.592.194a.56.56 0 0 0-.227.448c0 .31.197.5.59.574l.803.152c.551.101.976.318 1.275.65.304.327.456.71.456 1.148 0 .501-.2.943-.6 1.326-.4.377-.937.566-1.612.566-.755 0-1.34-.194-1.757-.583-.41-.394-.642-.838-.692-1.334l1.224-.295c.028.298.144.546.346.743.209.191.507.287.895.287.26 0 .465-.057.617-.17a.553.553 0 0 0 .228-.455.49.49 0 0 0-.17-.38.927.927 0 0 0-.472-.22l-.819-.152c-.507-.095-.906-.3-1.199-.616a1.633 1.633 0 0 1-.43-1.14c0-.551.21-1.01.633-1.376a2.231 2.231 0 0 1 1.511-.549c.355 0 .67.05.946.152a1.7 1.7 0 0 1 .667.388c.163.164.29.333.38.507.095.174.16.357.194.549zm5.145 0l-1.199.338a.92.92 0 0 0-.278-.515c-.158-.158-.397-.237-.718-.237-.242 0-.44.065-.591.194a.56.56 0 0 0-.228.448c0 .31.197.5.591.574l.802.152c.552.101.977.318 1.275.65.304.327.456.71.456 1.148 0 .501-.2.943-.6 1.326-.4.377-.937.566-1.612.566-.755 0-1.34-.194-1.757-.583-.41-.394-.641-.838-.692-1.334l1.224-.295c.029.298.144.546.347.743.208.191.506.287.895.287.259 0 .464-.057.616-.17a.552.552 0 0 0 .228-.455.49.49 0 0 0-.169-.38.927.927 0 0 0-.473-.22l-.819-.152c-.506-.095-.906-.3-1.199-.616a1.633 1.633 0 0 1-.43-1.14c0-.551.21-1.01.633-1.376a2.231 2.231 0 0 1 1.511-.549c.355 0 .67.05.946.152a1.7 1.7 0 0 1 .667.388c.163.164.29.333.38.507.096.174.16.357.194.549zm4.943 4.517h-3.918v-5.986h1.334v4.711h2.584v1.275zm5.704.127c-.879 0-1.616-.287-2.213-.861-.596-.58-.895-1.329-.895-2.246 0-.912.302-1.661.904-2.246.602-.591 1.331-.887 2.187-.887.428 0 .813.065 1.157.194.349.124.63.29.844.498.214.209.386.422.515.642.13.22.22.448.27.684l-1.258.397a1.374 1.374 0 0 0-.135-.346 1.591 1.591 0 0 0-.262-.355 1.16 1.16 0 0 0-.464-.296 1.783 1.783 0 0 0-.667-.118c-.45 0-.847.16-1.19.482-.344.315-.516.765-.516 1.35 0 .541.169.972.507 1.292.337.321.743.482 1.216.482.461 0 .819-.116 1.072-.346.253-.231.42-.49.498-.777l1.275.363a2.61 2.61 0 0 1-.279.684 2.996 2.996 0 0 1-.515.667c-.213.22-.5.4-.86.54a3.322 3.322 0 0 1-1.191.203zm8.827-.127H60.82v-2.38h-2.39v2.38h-1.334v-5.986h1.334v2.347h2.39v-2.347h1.342v5.986zm5.091 0h-3.8v-5.986h3.792v1.258h-2.457v1.14h2.229v1.173h-2.23v1.149h2.466v1.266zm3.876.127c-.878 0-1.616-.287-2.212-.861-.597-.58-.895-1.329-.895-2.246 0-.912.3-1.661.903-2.246.602-.591 1.331-.887 2.187-.887.428 0 .813.065 1.157.194.349.124.63.29.844.498.214.209.386.422.515.642.13.22.22.448.27.684l-1.258.397a1.374 1.374 0 0 0-.135-.346 1.591 1.591 0 0 0-.261-.355 1.16 1.16 0 0 0-.465-.296 1.783 1.783 0 0 0-.667-.118c-.45 0-.847.16-1.19.482-.344.315-.516.765-.516 1.35 0 .541.17.972.507 1.292.338.321.743.482 1.216.482.462 0 .819-.116 1.072-.346.254-.231.42-.49.498-.777l1.275.363a2.61 2.61 0 0 1-.278.684 2.999 2.999 0 0 1-.515.667c-.214.22-.501.4-.862.54a3.323 3.323 0 0 1-1.19.203zm7.384-.127l-1.613-2.356-.676.752v1.604H74.89v-5.986h1.334v2.516L78.41 13.1h1.757l-2.33 2.592 2.338 3.394h-1.663z" fill="#222"/><path d="M82.034 14.747c-.344.31-.516.757-.516 1.343 0 .585.172 1.033.516 1.342.348.31.754.465 1.215.465.462 0 .864-.155 1.208-.465.343-.31.515-.757.515-1.342 0-.586-.172-1.033-.515-1.343a1.728 1.728 0 0 0-1.208-.473c-.461 0-.867.158-1.215.473zm-1.9 1.351c0-.929.3-1.68.903-2.254.608-.58 1.345-.87 2.212-.87.867 0 1.602.29 2.204.87.602.58.904 1.331.904 2.254s-.302 1.675-.904 2.255c-.602.574-1.337.86-2.204.86-.867 0-1.604-.286-2.212-.86-.602-.58-.903-1.332-.903-2.255zm11.192 2.525c-.444.4-1.01.6-1.697.6s-1.255-.2-1.705-.6c-.445-.405-.667-.971-.667-1.697V13.1h1.334v3.715c0 .355.09.625.27.81.186.186.442.28.768.28.327 0 .58-.094.76-.28.186-.185.279-.456.279-.81V13.1h1.334v3.825c0 .726-.225 1.292-.675 1.697zm6.502-4.247h-1.85v4.711h-1.333v-4.711h-1.841V13.1h5.024v1.275z" fill="#222"/><rect x=".5" y=".785" width="101.978" height="24.996" rx="2.5" stroke="#222"/></svg>
